X:649
T: The Humours Of Lissadell
Z: Piano Box Version by Martin Fleischmann
H: Created 2015-03-27 /  Last Modified 2015-04-28
R: reel
M: 4/4
L: 1/8
K: Edor
gf |: "em"eB~B2 eBdB | "D"A2FF EDB,A, | "em"B,EEE B,EGE | "bm"FB~B2 FBdf |
| "em"eB~B2 eBdB | "D"AF~F2 EDDE | "em"B,E{G}ED EFGA | "bm"Bded "em"e2gf :|
|: "em"eB~B2 "D"A2FA | dcdf edef | df~f2 dfbf | afdf "em"edBc |
| "D"d2 fd BcdB | AF~F2 ABde | fedc dfbf | afdf "em"e2gf:|

